X: 2
T:Over The Water To Charlie. JaW.002
M:6/8
Q:120
S:James Winder Ms, Lancashire, 1835-41
R:Jig
O:England
A:Wyresdale,Lancashire
H:1/8
Z:vmp.Chris Partington, Aug 2004
K:D
D2A AFA|BdB AFD|D2A AFA|B3 d3|!
D2A AFA|BdB AFD|dfd ecA|B3 d3:|!
|:dfd ecA|BdB AFD|dfd ecA|B3 d3|!
dfd ecA|BdB AFD|D2A AFA|B3 d3:|]
